web/packages/design/src/ResourceIcon/assets/redhat.svg

<svg width="72" height="72" viewBox="0 0 72 72" fill="none" xmlns="http://www.w3.org/2000/svg">
<path d="M48.0515 40.1426C52.7673 40.1426 59.5904 39.17 59.5904 33.5608C59.6045 33.1279 59.5652 32.6949 59.4735 32.2716L56.6651 20.0731C56.0168 17.3891 55.4475 16.1715 50.7355 13.8155C47.0789 11.9457 39.1137 8.8584 36.7577 8.8584C34.5638 8.8584 33.9267 11.6856 31.3106 11.6856C28.7925 11.6856 26.9227 9.57463 24.5667 9.57463C22.3049 9.57463 20.831 11.1164 19.6926 14.2867C19.6926 14.2867 16.5223 23.2282 16.1152 24.525C16.0505 24.7631 16.0225 25.0097 16.0322 25.2563C16.0322 28.7319 29.716 40.1275 48.0515 40.1275M60.3141 35.8377C60.9663 38.925 60.9663 39.2492 60.9663 39.6563C60.9663 44.9338 55.0329 47.8628 47.2335 47.8628C29.6067 47.8741 14.1663 37.5453 14.1663 30.7185C14.1653 29.7682 14.359 28.8279 14.7355 27.9554C8.39497 28.272 0.188477 29.4029 0.188477 36.6481C0.188477 48.5149 28.3062 63.1411 50.5696 63.1411C67.6385 63.1411 71.9435 55.4209 71.9435 49.3254C71.9435 44.5304 67.7969 39.0871 60.3217 35.8377" fill="#EE0000"/>
</svg>

<svg xmlns="http://www.w3.org/2000/svg" width="72" height="72" fill="none" viewBox="0 0 72 72"><path fill="#e00" d="M48.052 40.143c4.715 0 11.538-.973 11.538-6.582a5.3 5.3 0 0 0-.117-1.29l-2.808-12.198c-.648-2.684-1.218-3.901-5.93-6.257-3.656-1.87-11.621-4.958-13.977-4.958-2.194 0-2.831 2.828-5.447 2.828-2.518 0-4.388-2.111-6.744-2.111-2.262 0-3.736 1.541-4.874 4.712 0 0-3.17 8.941-3.578 10.238a2.4 2.4 0 0 0-.083.731c0 3.476 13.684 14.871 32.02 14.871m12.262-4.29c.652 3.088.652 3.412.652 3.82 0 5.277-5.933 8.206-13.733 8.206-17.626.011-33.067-10.318-33.067-17.144 0-.95.193-1.891.57-2.764C8.395 28.272.188 29.403.188 36.648c0 11.867 28.118 26.493 50.382 26.493 17.068 0 21.374-7.72 21.374-13.816 0-4.795-4.147-10.238-11.622-13.487"/></svg>
